packages/ffe-icons/icons/filled/sm/grid_off.svg

<svg xmlns="http://www.w3.org/2000/svg" height="20" viewBox="0 -960 960 960" width="20"><path d="m796.617-90.462-73.539-73.539H619.999V-267.08L568-319.079v155.078H392v-175.616h155.462l-51.998-51.998H392v-103.079l-51.999-51.999v155.078h-176v-176.77H318.31l-51.999-51.998h-102.31v-102.31l-66.223-66.224q-8.161-8.161-7.661-17.929.5-9.769 8.89-18.16 8.609-8.609 17.994-8.609 9.384 0 18.076 8.692l697.966 697.966q8.265 8.265 8.65 18.226.384 9.961-7.923 18.83-8.308 8.131-18.577 7.939-10.269-.193-18.576-8.5Zm-568.308-73.539q-26.527 0-45.417-18.891-18.891-18.89-18.891-45.417v-111.308h176v175.616H228.309Zm567.69-99.462-76.154-76.154h76.154v76.154ZM667.846-391.615l-47.847-47.848v-128.922h176v176.77H667.846ZM568-491.461l-75.923-76.924H568v76.924ZM440.078-620.383 392-668.461v-127.538h176v175.616H440.078Zm179.921 0v-175.616h111.692q26.527 0 45.417 18.891 18.891 18.89 18.891 45.417v111.308h-176ZM340.001-720.46l-75.538-75.539h75.538v75.539Z"/></svg>

<svg xmlns="http://www.w3.org/2000/svg" height="20" viewBox="0 -960 960 960" width="20"><path d="M796.62-90.46 723.08-164H620v-103.08l-52-52V-164H392v-175.62h155.46l-52-52H392v-103.07l-52-52v155.07H164v-176.76h154.31l-52-52H164v-102.31l-66.22-66.23q-8.16-8.16-7.66-17.93t8.89-18.16q8.61-8.6 17.99-8.6 9.39 0 18.08 8.69l697.96 697.96q8.27 8.27 8.65 18.23.39 9.96-7.92 18.83-8.31 8.13-18.58 7.94-10.27-.19-18.57-8.5ZM228.31-164q-26.53 0-45.42-18.89T164-228.31v-111.31h176V-164H228.31ZM796-263.46l-76.16-76.16H796v76.16ZM667.85-391.62 620-439.46v-128.92h176v176.76H667.85ZM568-491.46l-75.92-76.92H568v76.92ZM440.08-620.38 392-668.46V-796h176v175.62H440.08Zm179.92 0V-796h111.69q26.53 0 45.42 18.89T796-731.69v111.31H620ZM340-720.46 264.46-796H340v75.54Z"/></svg>
